public/assets/icons/social/wa.svg

<svg width="37" height="35" viewBox="0 0 37 35" fill="none" xmlns="http://www.w3.org/2000/svg">
<g opacity="0.8">
<path d="M18.2858 7.00024H18.2806C12.4911 7.00024 7.7832 11.7095 7.7832 17.5002C7.7832 19.7971 8.52345 21.926 9.78214 23.6546L8.47358 27.5553L12.5095 26.2651C14.1698 27.365 16.1504 28.0002 18.2858 28.0002C24.0753 28.0002 28.7832 23.2897 28.7832 17.5002C28.7832 11.7108 24.0753 7.00024 18.2858 7.00024ZM24.3955 21.8276C24.1422 22.5429 23.1368 23.1361 22.3349 23.3094C21.7863 23.4262 21.0696 23.5194 18.6573 22.5192C15.5716 21.2409 13.5845 18.1053 13.4296 17.9019C13.2813 17.6984 12.1827 16.2416 12.1827 14.7348C12.1827 13.2281 12.9479 12.4944 13.2563 12.1794C13.5096 11.9208 13.9283 11.8027 14.33 11.8027C14.4599 11.8027 14.5767 11.8092 14.6817 11.8145C14.9901 11.8276 15.145 11.846 15.3485 12.3329C15.6018 12.9432 16.2186 14.45 16.2921 14.6049C16.367 14.7597 16.4418 14.9697 16.3368 15.1732C16.2383 15.3832 16.1517 15.4764 15.9968 15.6549C15.842 15.8334 15.695 15.9699 15.5401 16.1615C15.3983 16.3282 15.2382 16.5067 15.4167 16.8151C15.5952 17.117 16.2121 18.1237 17.1203 18.9322C18.2924 19.9756 19.2426 20.309 19.5826 20.4507C19.8359 20.5557 20.1378 20.5308 20.3228 20.3339C20.5578 20.0806 20.8478 19.6606 21.1431 19.2472C21.3531 18.9506 21.6183 18.9138 21.8965 19.0188C22.18 19.1172 23.6802 19.8588 23.9886 20.0124C24.2971 20.1672 24.5005 20.2407 24.5753 20.3707C24.6488 20.5006 24.6488 21.1109 24.3955 21.8276Z" fill="#020F59"/>
</g>
</svg>

<svg xmlns="http://www.w3.org/2000/svg" width="37" height="35" fill="none"><path fill="#020F59" d="M18.286 7h-.005C12.49 7 7.783 11.71 7.783 17.5c0 2.297.74 4.426 2 6.155l-1.31 3.9 4.036-1.29C14.17 27.365 16.15 28 18.287 28c5.79 0 10.497-4.71 10.497-10.5S24.075 7 18.286 7Zm6.11 14.828c-.254.715-1.26 1.308-2.061 1.481-.549.117-1.265.21-3.678-.79-3.085-1.278-5.072-4.414-5.227-4.617-.149-.204-1.247-1.66-1.247-3.167s.765-2.24 1.073-2.556c.254-.258.672-.376 1.074-.376.13 0 .247.006.352.011.308.014.463.032.666.519.254.61.87 2.117.944 2.272.075.155.15.365.045.568-.099.21-.185.303-.34.482-.155.178-.302.315-.457.507-.142.166-.302.345-.123.653.178.302.795 1.309 1.703 2.117 1.172 1.044 2.123 1.377 2.463 1.519.253.105.555.08.74-.117.235-.253.525-.673.82-1.087.21-.296.475-.333.753-.228.284.098 1.784.84 2.093.993.308.155.511.229.586.359.074.13.074.74-.18 1.457Z" opacity=".8"/></svg>
